editor/icons/source/bug.svg

<svg width="20" height="20" viewBox="0 0 20 20" fill="none" xmlns="http://www.w3.org/2000/svg">
<path fill-rule="evenodd" clip-rule="evenodd" d="M10 3.5C9.43345 3.5 8.88487 3.73609 8.47645 4.16493C8.06724 4.5946 7.83333 5.18234 7.83333 5.8V6.73333C7.83333 7.00948 7.60948 7.23333 7.33333 7.23333C7.05719 7.23333 6.83333 7.00948 6.83333 6.73333V5.8C6.83333 4.93244 7.16133 4.09581 7.75231 3.47527C8.34409 2.85391 9.15206 2.5 10 2.5C10.8479 2.5 11.6559 2.85391 12.2477 3.47527C12.8387 4.09581 13.1667 4.93244 13.1667 5.8V6.73333C13.1667 7.00948 12.9428 7.23333 12.6667 7.23333C12.3905 7.23333 12.1667 7.00948 12.1667 6.73333V5.8C12.1667 5.18234 11.9328 4.5946 11.5236 4.16493C11.1151 3.73609 10.5665 3.5 10 3.5Z" fill="#BABABA"/>
<path fill-rule="evenodd" clip-rule="evenodd" d="M6.01771 6.4726C5.44432 7.37773 5.11303 8.42542 5.05623 9.50711C5.05577 9.51585 5.05554 9.52459 5.05554 9.53333V12.3333C5.05554 13.696 5.57084 15.0074 6.49522 15.978C7.42039 16.9494 8.68055 17.5 9.99999 17.5C11.3194 17.5 12.5796 16.9494 13.5048 15.978C14.4291 15.0074 14.9444 13.696 14.9444 12.3333V9.53333C14.9444 9.52459 14.9442 9.51585 14.9437 9.50711C14.8868 8.42245 14.5538 7.37198 13.9775 6.46515C13.8858 6.32078 13.7266 6.23333 13.5555 6.23333H6.45287C6.43623 6.23307 6.41961 6.23363 6.40309 6.23502C6.33123 6.2409 6.26368 6.26197 6.20365 6.29502C6.14355 6.32796 6.08953 6.37367 6.04603 6.43116C6.03592 6.44447 6.02647 6.4583 6.01771 6.4726ZM6.72752 7.23333C6.33198 7.93448 6.10051 8.72762 6.05554 9.54674V12.3333C6.05554 13.4461 6.47675 14.5086 7.21936 15.2883C7.96118 16.0672 8.96194 16.5 9.99999 16.5C11.038 16.5 12.0388 16.0672 12.7806 15.2883C13.5232 14.5086 13.9444 13.4461 13.9444 12.3333V9.54675C13.8995 8.72763 13.668 7.93448 13.2725 7.23333H6.72752Z" fill="#BABABA"/>
<path fill-rule="evenodd" clip-rule="evenodd" d="M1.5 10.4667C1.5 10.1905 1.72386 9.96667 2 9.96667H5.55556C5.8317 9.96667 6.05556 10.1905 6.05556 10.4667C6.05556 10.7428 5.8317 10.9667 5.55556 10.9667H2C1.72386 10.9667 1.5 10.7428 1.5 10.4667Z" fill="#BABABA"/>
<path fill-rule="evenodd" clip-rule="evenodd" d="M13.9445 10.4667C13.9445 10.1905 14.1683 9.96667 14.4445 9.96667H18C18.2762 9.96667 18.5 10.1905 18.5 10.4667C18.5 10.7428 18.2762 10.9667 18 10.9667H14.4445C14.1683 10.9667 13.9445 10.7428 13.9445 10.4667Z" fill="#BABABA"/>
<path fill-rule="evenodd" clip-rule="evenodd" d="M10 10.9C10.2761 10.9 10.5 11.1239 10.5 11.4V17C10.5 17.2761 10.2761 17.5 9.99999 17.5C9.72384 17.5 9.5 17.2761 9.5 17V11.4C9.5 11.1239 9.72386 10.9 10 10.9Z" fill="#BABABA"/>
<path fill-rule="evenodd" clip-rule="evenodd" d="M6.29034 13.9344C6.43701 14.1684 6.36623 14.477 6.13226 14.6236L3.15448 16.4903C2.92051 16.637 2.61194 16.5662 2.46527 16.3322C2.3186 16.0983 2.38938 15.7897 2.62335 15.643L5.60113 13.7764C5.8351 13.6297 6.14367 13.7005 6.29034 13.9344Z" fill="#BABABA"/>
<path fill-rule="evenodd" clip-rule="evenodd" d="M13.7097 13.9344C13.8563 13.7005 14.1649 13.6297 14.3989 13.7764L17.3766 15.643C17.6106 15.7897 17.6814 16.0983 17.5347 16.3322C17.3881 16.5662 17.0795 16.637 16.8455 16.4903L13.8677 14.6236C13.6338 14.477 13.563 14.1684 13.7097 13.9344Z" fill="#BABABA"/>
<path fill-rule="evenodd" clip-rule="evenodd" d="M2.47392 4.58779C2.62794 4.35859 2.9386 4.29765 3.1678 4.45167L6.50113 6.69167C6.73033 6.84569 6.79127 7.15635 6.63725 7.38555C6.48323 7.61475 6.17257 7.67569 5.94337 7.52167L2.61004 5.28167C2.38084 5.12765 2.31989 4.81699 2.47392 4.58779Z" fill="#BABABA"/>
<path fill-rule="evenodd" clip-rule="evenodd" d="M17.526 4.58779C17.6801 4.81699 17.6191 5.12765 17.3899 5.28167L14.0566 7.52167C13.8274 7.67569 13.5167 7.61475 13.3627 7.38555C13.2087 7.15635 13.2696 6.84569 13.4988 6.69167L16.8322 4.45167C17.0614 4.29765 17.372 4.35859 17.526 4.58779Z" fill="#BABABA"/>
</svg>

<svg width="20" height="20" xmlns="http://www.w3.org/2000/svg" viewBox="0 0 20 20">
  <g fill="none" class="nc-icon-wrapper">
    <path fill-rule="evenodd" clip-rule="evenodd" d="M10 3.5c-.567 0-1.115.236-1.524.665A2.373 2.373 0 0 0 7.833 5.8v.933a.5.5 0 1 1-1 0V5.8c0-.868.328-1.704.92-2.325A3.104 3.104 0 0 1 10 2.5c.848 0 1.656.354 2.248.975.59.62.919 1.457.919 2.325v.933a.5.5 0 0 1-1 0V5.8c0-.618-.234-1.205-.643-1.635A2.104 2.104 0 0 0 10 3.5z" fill="currentColor"></path>
    <path fill-rule="evenodd" clip-rule="evenodd" d="M6.018 6.473a6.29 6.29 0 0 0-.962 3.06v2.8c0 1.363.515 2.674 1.44 3.645A4.84 4.84 0 0 0 10 17.5c1.32 0 2.58-.55 3.505-1.522a5.288 5.288 0 0 0 1.44-3.645v-2.8l-.001-.026a6.29 6.29 0 0 0-.967-3.042.5.5 0 0 0-.421-.232H6.453a.5.5 0 0 0-.435.24zm.71.76a5.304 5.304 0 0 0-.672 2.314v2.786c0 1.113.42 2.176 1.163 2.955A3.84 3.84 0 0 0 10 16.5a3.84 3.84 0 0 0 2.78-1.212 4.288 4.288 0 0 0 1.164-2.955V9.547a5.303 5.303 0 0 0-.671-2.314H6.728z" fill="currentColor"></path>
    <path fill-rule="evenodd" clip-rule="evenodd" d="M1.5 10.467a.5.5 0 0 1 .5-.5h3.556a.5.5 0 1 1 0 1H2a.5.5 0 0 1-.5-.5z" fill="currentColor"></path>
    <path fill-rule="evenodd" clip-rule="evenodd" d="M13.944 10.467a.5.5 0 0 1 .5-.5H18a.5.5 0 1 1 0 1h-3.556a.5.5 0 0 1-.5-.5z" fill="currentColor"></path>
    <path fill-rule="evenodd" clip-rule="evenodd" d="M10 10.9a.5.5 0 0 1 .5.5V17a.5.5 0 0 1-1 0v-5.6a.5.5 0 0 1 .5-.5z" fill="currentColor"></path>
    <path fill-rule="evenodd" clip-rule="evenodd" d="M6.29 13.934a.5.5 0 0 1-.158.69L3.154 16.49a.5.5 0 1 1-.53-.847L5.6 13.776a.5.5 0 0 1 .69.158z" fill="currentColor"></path>
    <path fill-rule="evenodd" clip-rule="evenodd" d="M13.71 13.934a.5.5 0 0 1 .689-.158l2.978 1.867a.5.5 0 1 1-.531.847l-2.978-1.866a.5.5 0 0 1-.158-.69z" fill="currentColor"></path>
    <path fill-rule="evenodd" clip-rule="evenodd" d="M2.474 4.588a.5.5 0 0 1 .694-.136L6.5 6.692a.5.5 0 1 1-.558.83L2.61 5.282a.5.5 0 0 1-.136-.694z" fill="currentColor"></path>
    <path fill-rule="evenodd" clip-rule="evenodd" d="M17.526 4.588a.5.5 0 0 1-.136.694l-3.333 2.24a.5.5 0 0 1-.558-.83l3.333-2.24a.5.5 0 0 1 .694.136z" fill="currentColor"></path>
  </g>
</svg>
